lib/radiotmp/nrk-hardware-smart-speaker-expressive.svg

<svg width="24" height="24" viewBox="0 0 24 24" fill="none" xmlns="http://www.w3.org/2000/svg">
<path fill-rule="evenodd" clip-rule="evenodd" d="M22 2C22 1.44772 22.4477 1 23 1C23.5523 1 24 1.44772 24 2V10C24 10.5523 23.5523 11 23 11C22.4477 11 22 10.5523 22 10V2ZM16.9967 23.0011C18.6525 23.0005 19.9948 21.6584 19.9956 20.0026L20 10.9815H18L17.9947 20.0011C17.9944 20.5529 17.547 21.0002 16.9952 21.0005L7.00049 21.0054C6.44801 21.0057 6 20.5579 6 20.0054V5.99464C6 5.44213 6.44808 4.99432 7.00059 4.99464L16.0004 4.99999V2.99999L7.00149 2.99554C5.34405 2.99472 4 4.3381 4 5.99554V20.0048C4 21.6621 5.34382 23.0054 7.00111 23.0048L16.9967 23.0011ZM17.0004 19.0667L17 19.0684V19.0506C17.0076 19.0525 17.0044 19.0587 17.0019 19.0635L17.0004 19.0667ZM12 9.5C12.8284 9.5 13.5 8.82843 13.5 8C13.5 7.17157 12.8284 6.5 12 6.5C11.1716 6.5 10.5 7.17157 10.5 8C10.5 8.82843 11.1716 9.5 12 9.5ZM20 4C20 3.44772 19.5523 3 19 3C18.4477 3 18 3.44772 18 4V8C18 8.55228 18.4477 9 19 9C19.5523 9 20 8.55228 20 8V4ZM12 17C10.8954 17 10 16.1046 10 15C10 13.8954 10.8954 13 12 13C13.1046 13 14 13.8954 14 15C14 16.1046 13.1046 17 12 17ZM12 19C9.79086 19 8 17.2091 8 15C8 12.7909 9.79086 11 12 11C14.2091 11 16 12.7909 16 15C16 17.2091 14.2091 19 12 19Z" fill="black"/>
</svg>

<svg xmlns="http://www.w3.org/2000/svg" viewBox="0 0 24 24"><path fill="#000" fill-rule="evenodd" d="M22 2a1 1 0 1 1 2 0v8a1 1 0 1 1-2 0V2Zm-5.003 21.001a3 3 0 0 0 2.999-2.998L20 10.982h-2l-.005 9.02a1 1 0 0 1-1 .998L7 21.005a1 1 0 0 1-1-1V5.995a1 1 0 0 1 1-1L16 5V3l-8.999-.004a3 3 0 0 0-3.001 3v14.009a3 3 0 0 0 3.001 3L16.997 23ZM17 19.067v.001-.017c.008.002.004.008.002.013l-.002.003ZM12 9.5a1.5 1.5 0 1 0 0-3 1.5 1.5 0 0 0 0 3ZM20 4a1 1 0 1 0-2 0v4a1 1 0 1 0 2 0V4Zm-8 13a2 2 0 1 1 0-4 2 2 0 0 1 0 4Zm0 2a4 4 0 1 1 0-8 4 4 0 0 1 0 8Z" clip-rule="evenodd"/></svg>
